X:283
T:Greensleeves
M:6/8
N:The tune for the Wyresdale "Old man's dance" collected by Cecil Sharpe
K:EDor
G2G GAB | A2F D2F | G2E EFG | F2D B,2 F | 
G2G GAB | A2F D2F | GFE FED | E3 E3 :| 
d2d dcB | A2F D3 | d2d dcB | e2c A3 | 
d2d dcB | A2F D2F | GFE FED | E3 E3 :| 

